packages/kaspersky-hexa-ui-icons/src/iconsSVGs/24/SearchPet.svg

<svg width="24" height="24" viewBox="0 0 24 24" fill="none" xmlns="http://www.w3.org/2000/svg">
<path d="M11.1864 8.98757C11.3598 9.73872 11.0391 10.4541 10.4702 10.5855C9.9012 10.7168 9.29938 10.2144 9.12597 9.46326C8.95255 8.71211 9.27321 7.99671 9.84217 7.86535C10.4111 7.73399 11.013 8.23643 11.1864 8.98757Z" fill="black"/>
<path d="M10.5187 11.7115C10.9465 10.9413 12.0541 10.9413 12.482 11.7114L12.7469 12.1882C12.8917 12.4488 13.072 12.688 13.2828 12.8987L13.6208 13.2367C14.4015 14.0174 13.705 15.338 12.6198 15.1345L12.0917 15.0355C11.7009 14.9622 11.2999 14.9622 10.9091 15.0355L10.381 15.1345C9.29578 15.338 8.59924 14.0174 9.37996 13.2367L9.71787 12.8988C9.92868 12.688 10.1091 12.4488 10.2539 12.1882L10.5187 11.7115Z" fill="black"/>
<path d="M9.15731 10.749C9.52661 11.3886 9.3996 12.1533 8.87363 12.457C8.34766 12.7606 7.62191 12.4883 7.25261 11.8486C6.88331 11.209 7.01032 10.4443 7.53629 10.1406C8.06226 9.83696 8.78801 10.1093 9.15731 10.749Z" fill="black"/>
<path d="M13.8427 10.749C13.4734 11.3886 13.6004 12.1533 14.1264 12.457C14.6523 12.7606 15.3781 12.4883 15.7474 11.8486C16.1167 11.209 15.9897 10.4443 15.4637 10.1406C14.9377 9.83696 14.212 10.1093 13.8427 10.749Z" fill="black"/>
<path d="M11.8143 8.98757C11.6409 9.73872 11.9616 10.4541 12.5305 10.5855C13.0995 10.7168 13.7013 10.2144 13.8747 9.46326C14.0482 8.71211 13.7275 7.99671 13.1585 7.86535C12.5896 7.73399 11.9878 8.23643 11.8143 8.98757Z" fill="black"/>
<path fill-rule="evenodd" clip-rule="evenodd" d="M2 11.5C2 6.25329 6.25329 2 11.5 2C16.7467 2 21 6.25329 21 11.5C21 13.7631 20.2086 15.8415 18.8875 17.4733L21.7071 20.2929C22.0976 20.6834 22.0976 21.3166 21.7071 21.7071C21.3166 22.0976 20.6834 22.0976 20.2929 21.7071L17.4733 18.8875C15.8415 20.2086 13.7631 21 11.5 21C6.25329 21 2 16.7467 2 11.5ZM11.5 4C7.35786 4 4 7.35786 4 11.5C4 15.6421 7.35786 19 11.5 19C15.6421 19 19 15.6421 19 11.5C19 7.35786 15.6421 4 11.5 4Z" fill="black"/>
</svg>

<svg xmlns="http://www.w3.org/2000/svg" width="24" height="24" fill="none" viewBox="0 0 24 24"><path fill="#000" fill-rule="evenodd" d="M2 11.5C2 6.2533 6.2533 2 11.5 2S21 6.2533 21 11.5c0 2.2631-.7914 4.3415-2.1125 5.9733l2.8196 2.8196c.3905.3905.3905 1.0237 0 1.4142s-1.0237.3905-1.4142 0l-2.8196-2.8196C15.8415 20.2086 13.7631 21 11.5 21 6.2533 21 2 16.7467 2 11.5M11.5 4C7.3579 4 4 7.3579 4 11.5S7.3579 19 11.5 19s7.5-3.3579 7.5-7.5S15.6421 4 11.5 4m-1.0298 6.5855c.5689-.1314.8896-.8468.7162-1.598-.1734-.751-.7753-1.2535-1.3442-1.1221s-.8896.8467-.7162 1.5979c.1734.7511.7752 1.2535 1.3442 1.1222m2.0603 0c-.5689-.1314-.8896-.8468-.7162-1.598.1735-.751.7753-1.2535 1.3442-1.1221s.8897.8467.7163 1.5979c-.1735.7511-.7753 1.2535-1.3443 1.1222M8.8736 12.457c.526-.3037.653-1.0684.2837-1.708-.3693-.6397-1.095-.912-1.621-.6084-.526.3037-.653 1.0684-.2837 1.708.3693.6397 1.095.912 1.621.6084m5.2528 0c-.526-.3037-.653-1.0684-.2837-1.708.3693-.6397 1.095-.912 1.621-.6084.526.3037.653 1.0684.2837 1.708-.3693.6397-1.0951.912-1.621.6084m-3.6077-.7455c.4278-.7702 1.5354-.7702 1.9633 0l.2649.4767c.1448.2606.3251.4998.5359.7105l.338.338c.7807.7807.0842 2.1013-1.001 1.8978l-.5281-.099a3.21 3.21 0 0 0-1.1826 0l-.5281.099c-1.0852.2035-1.7818-1.1171-1.001-1.8978l.3379-.3379a3.2 3.2 0 0 0 .536-.7106z"/></svg>
